X:1
T:Title
%%score { ( 1 3 5 ) | ( 2 4 ) }
L:1/8
M:4/4
K:F
V:1 treble nm="Grand Piano"
V:3 treble 
V:5 treble 
V:2 bass 
V:4 bass 
V:1
 z4 z2[Q:1/4=100] C2 | A2 z2 B2 G2 | d2 =B2 c2 z2 | B2 z2 A2 G2 |[M:3/4] F4 E2 |[M:1/4] C2 | %6
[M:4/4] A2 z2 B2 G2 | d2 =B2 c2 z2 | z Dce z =B z F | c6[K:bass] z2 | %10
 [CFA]2 [=B,F_A][CF=A] [D^FB]2 [CFA]2 | [=B,FA]2 [B,FG]2 [B,D]4 | %12
 [B,EG]2 [A,E^F][B,EG] [CEA]2 [B,EG]2 | c8[K:bass] | [Ed]2 [Ed][Ed] [Fc]2 [Fc]2 | z4 A4 | %16
 G2 =Bc d2 ^cd |[M:9/8] z3 z c2 z3 |[M:4/4] [CFA]2 [=B,F_A][CF=A] [D^FB]2 [CFA]2 | %19
 [=B,FA]2 [B,FG]2 [B,D]4 | [B,EG]2 [A,E^F][B,EG] [CEA]2 [B,EG]2 |[M:3/4] c6 |[M:1/4] [Ec]2 | %23
[M:4/4] [Ff]2 [Af][Af] e2 e2 |[M:9/8] d2 c- c B2- BAA |[M:4/4] G2 cc [Ed]2 [Ec]2 |[M:3/4] F6 |] %27
V:2
 z4 z2 C,2 | z C_A,=A, z[K:treble] C z C | z F z E z F[K:bass]A,A, | z D^C,D, z C z [B,C] | %4
[M:3/4] z [_A,=B,] [A,B,][A,B,] z _B, |[M:1/4] C,2 |[M:4/4] z C_A,=A, z[K:treble] C z C | %7
 z F z F z F[K:bass]A,A, | z =B,C[K:treble]E z [FG] z [B,D] | %9
 z2[K:bass] [^F,,^F,][F,,F,] [G,,G,]2 C,,2 | F,2 F,F, D,2 D,2 | G,2 G,2 G,4 | C,2 C,C, C,2 C,2 | %13
 [F,A,F][F,A,][^F,A,][F,A,] B,4 | [C,B,]2 [C,B,][C,B,] [C,A,]2 [C,A,]2 | z4 [F,F]2 z2 | %16
 [G,=B,F]2 [G,DF][G,CE] [G,B,F]2 [G,_B,E][G,=B,F] | %17
[M:9/8] [G,CG]2 [G,=B,F]- [G,B,F][K:bass] z z B3 |[M:4/4] F,2 F,F, D,2 D,2 | G,2 G,2 G,4 | %20
 C,2 C,C, C,2 C,2 |[M:3/4] [F,A,F][F,A,] [F,A,][F,A,] [G,B,]2 |[M:1/4] [C,B,]2 | %23
[M:4/4] [F,A,]2 [F,C][F,C][K:treble] [A,^CG]2 [A,CG]2 | %24
[M:9/8] [B,DF]2 [A,D^F]- [A,DF] [G,DG]2- [G,DG][A,D=F][A,DF] | %25
[M:4/4] [B,DF]2[K:bass] [G,B,E][G,B,E] [C,B,]2 [C,B,]2 |[M:3/4] A,A, B,B, A,2 |] %27
V:3
 x8 | z F_A=A z E z E | z _A z A z =AAA | z G^CD z F z E |[M:3/4] z D DD z C |[M:1/4] x2 | %6
[M:4/4] z F_A=A z E z E | z _A z A z =AAA | G2 z2 d2 G2 | z2 [_EA][EA] [=EB]2[K:bass] C,2 | x8 | %11
 x8 | x8 | z4 =E4[K:bass] | x8 | [EB]2 [EB]2 z2 ^F2 | x8 |[M:9/8] e2 d- d [CE]2- [CE]3 | %18
[M:4/4] x8 | x8 | x8 |[M:3/4] z F _EE =E2 |[M:1/4] x2 |[M:4/4] x8 |[M:9/8] x9 |[M:4/4] x8 | %26
[M:3/4] z C DD C2 |] %27
V:4
 x8 | A,2 z2 B,2[K:treble] G,2 | D2 =B,2 C2[K:bass] z2 | B,2 z2 A,2 G,2 |[M:3/4] F,4 E,2 | %5
[M:1/4] x2 |[M:4/4] A,2 z2 B,2[K:treble] G,2 | D2 =B,2 C2[K:bass] z2 | G,2 z2[K:treble] D2 G,2 | %9
 x2[K:bass] x6 | x8 | x8 | x8 | z4 G,2 z2 | x8 | [C,G,]2 [C,C]2 C2- [D,C]2 | x8 | %17
[M:9/8] z3 z[K:bass] C,2- C,3 |[M:4/4] x8 | x8 | x8 |[M:3/4] x6 |[M:1/4] x2 | %23
[M:4/4] x4[K:treble] x4 |[M:9/8] x9 |[M:4/4] x2[K:bass] x6 |[M:3/4] F,6 |] %27
V:5
 x8 | x8 | x8 | x8 |[M:3/4] x6 |[M:1/4] x2 |[M:4/4] x8 | x8 | x8 | x6[K:bass] x2 | x8 | x8 | x8 | %13
 z F_EE z2[K:bass] C,2 | x8 | x8 | x8 |[M:9/8] x9 |[M:4/4] x8 | x8 | x8 |[M:3/4] x6 |[M:1/4] x2 | %23
[M:4/4] x8 |[M:9/8] x9 |[M:4/4] x8 |[M:3/4] x6 |] %27

